X:28
T:New Lanark Country Dance,aka. RDO.28
T:Country Dance. RDO.28
M:4/4
L:1/8
Q:1/2=90
S:Robert D. Owen MS,Indiana,1826.
R:.Reel
N:My title. Titled only “Country Dance” in MS.
O:Indiana,USA
A:New Harmony
Z:vmp.Chris Partington
K:G
D|G2Bc dBgB|agab gede|G2Bc dBgB|agab g2g:|!
d|g2bg egdg|Bgbg afed|g2bg egdg|Bgaf g2gd|!
g2bg egdg|Bgbg afed|g2bg egdg|BgAg dc”DC”BA|]

